X:2210
T:The Laird of Milton's Daughter
P:The Laird of Milton's Daughter
C:W. G. M. Christian
R:Jig (8x32)
B:RSCDS 22-10
Z:Anselm Lingnau <anselm@strathspey.org>
M:6/8
L:1/8
K:A
e/c/|"A"AAA ABc|efe cBA|"E"BAB "A"cBA|"Bm"FBA "E"GFE|
     "A"AAA ABc|efe cBA|"D"faf "A"ecA|"E7"BAA "A"A2||
e|"A"aaa c'ba|"E"gfg "A"aec|"D"faf "A"edc|"Bm"BcA "E7"GFE|
  "A"aaa c'ba|"E"gfg "A"aec|"Bm"f>ed "A"eac|"E7"BAA "A"A2|]
